MixerControl-app/src/img/lnr-license.svg

<?xml version="1.0" encoding="utf-8"?>
<!-- Generated by IcoMoon.io -->
<!DOCTYPE svg PUBLIC "-//W3C//DTD SVG 1.1//EN" "http://www.w3.org/Graphics/SVG/1.1/DTD/svg11.dtd">
<svg version="1.1" xmlns="http://www.w3.org/2000/svg" xmlns:xlink="http://www.w3.org/1999/xlink" width="20" height="20" viewBox="0 0 20 20">
<path fill="#000000" d="M18.5 18h-17c-0.827 0-1.5-0.673-1.5-1.5v-13c0-0.827 0.673-1.5 1.5-1.5h17c0.827 0 1.5 0.673 1.5 1.5v13c0 0.827-0.673 1.5-1.5 1.5zM1.5 3c-0.276 0-0.5 0.224-0.5 0.5v13c0 0.276 0.224 0.5 0.5 0.5h17c0.276 0 0.5-0.224 0.5-0.5v-13c0-0.276-0.224-0.5-0.5-0.5h-17z"></path>
<path fill="#000000" d="M9.5 6h-6c-0.276 0-0.5-0.224-0.5-0.5s0.224-0.5 0.5-0.5h6c0.276 0 0.5 0.224 0.5 0.5s-0.224 0.5-0.5 0.5z"></path>
<path fill="#000000" d="M9.5 9h-6c-0.276 0-0.5-0.224-0.5-0.5s0.224-0.5 0.5-0.5h6c0.276 0 0.5 0.224 0.5 0.5s-0.224 0.5-0.5 0.5z"></path>
<path fill="#000000" d="M9.5 11h-6c-0.276 0-0.5-0.224-0.5-0.5s0.224-0.5 0.5-0.5h6c0.276 0 0.5 0.224 0.5 0.5s-0.224 0.5-0.5 0.5z"></path>
<path fill="#000000" d="M9.5 13h-6c-0.276 0-0.5-0.224-0.5-0.5s0.224-0.5 0.5-0.5h6c0.276 0 0.5 0.224 0.5 0.5s-0.224 0.5-0.5 0.5z"></path>
<path fill="#000000" d="M8.5 15h-5c-0.276 0-0.5-0.224-0.5-0.5s0.224-0.5 0.5-0.5h5c0.276 0 0.5 0.224 0.5 0.5s-0.224 0.5-0.5 0.5z"></path>
<path fill="#000000" d="M17.943 6.544l-0.813-0.591-0.311-0.956h-1.005l-0.813-0.591-0.813 0.591h-1.005l-0.311 0.956-0.813 0.591 0.311 0.956-0.311 0.956 0.813 0.591 0.132 0.406c-0.002 0.016-0.002 0.031-0.002 0.047v5c0 0.202 0.122 0.385 0.309 0.462s0.402 0.035 0.545-0.108l1.146-1.146 1.146 1.146c0.096 0.096 0.223 0.147 0.354 0.146 0.064 0 0.129-0.012 0.191-0.038 0.187-0.077 0.309-0.26 0.309-0.462v-5c0-0.016-0.001-0.032-0.002-0.047l0.132-0.406 0.813-0.591-0.311-0.956 0.311-0.956zM13.233 6.926l0.488-0.355 0.187-0.574h0.604l0.488-0.355 0.488 0.355h0.604l0.187 0.574 0.488 0.355-0.187 0.574 0.187 0.574-0.488 0.355-0.187 0.574h-0.604l-0.488 0.355-0.488-0.355h-0.604l-0.187-0.574-0.488-0.355 0.187-0.574-0.187-0.574zM15.354 12.646c-0.195-0.195-0.512-0.195-0.707 0l-0.646 0.646v-3.29h0.187l0.813 0.591 0.813-0.591h0.187v3.29l-0.646-0.646z"></path>
</svg>

<?xml version="1.0" encoding="UTF-8" standalone="no"?>
<!DOCTYPE svg PUBLIC "-//W3C//DTD SVG 1.1//EN" "http://www.w3.org/Graphics/SVG/1.1/DTD/svg11.dtd">
<svg width="100%" height="100%" viewBox="0 0 20 20" version="1.1" xmlns="http://www.w3.org/2000/svg" xmlns:xlink="http://www.w3.org/1999/xlink" xml:space="preserve" style="fill-rule:evenodd;clip-rule:evenodd;stroke-linejoin:round;stroke-miterlimit:1.41421;">
    <g transform="matrix(0.9,0,0,0.9,1,1)">
        <path d="M18.5,18L1.5,18C0.673,18 0,17.327 0,16.5L0,3.5C0,2.673 0.673,2 1.5,2L18.5,2C19.327,2 20,2.673 20,3.5L20,16.5C20,17.327 19.327,18 18.5,18ZM1.5,3C1.224,3 1,3.224 1,3.5L1,16.5C1,16.776 1.224,17 1.5,17L18.5,17C18.776,17 19,16.776 19,16.5L19,3.5C19,3.224 18.776,3 18.5,3L1.5,3Z" style="fill-rule:nonzero;"/>
    </g>
    <g transform="matrix(0.9,0,0,0.9,1,1)">
        <path d="M9.5,6L3.5,6C3.224,6 3,5.776 3,5.5C3,5.224 3.224,5 3.5,5L9.5,5C9.776,5 10,5.224 10,5.5C10,5.776 9.776,6 9.5,6Z" style="fill-rule:nonzero;"/>
    </g>
    <g transform="matrix(0.9,0,0,0.9,1,1)">
        <path d="M9.5,9L3.5,9C3.224,9 3,8.776 3,8.5C3,8.224 3.224,8 3.5,8L9.5,8C9.776,8 10,8.224 10,8.5C10,8.776 9.776,9 9.5,9Z" style="fill-rule:nonzero;"/>
    </g>
    <g transform="matrix(0.9,0,0,0.9,1,1)">
        <path d="M9.5,11L3.5,11C3.224,11 3,10.776 3,10.5C3,10.224 3.224,10 3.5,10L9.5,10C9.776,10 10,10.224 10,10.5C10,10.776 9.776,11 9.5,11Z" style="fill-rule:nonzero;"/>
    </g>
    <g transform="matrix(0.9,0,0,0.9,1,1)">
        <path d="M9.5,13L3.5,13C3.224,13 3,12.776 3,12.5C3,12.224 3.224,12 3.5,12L9.5,12C9.776,12 10,12.224 10,12.5C10,12.776 9.776,13 9.5,13Z" style="fill-rule:nonzero;"/>
    </g>
    <g transform="matrix(0.9,0,0,0.9,1,1)">
        <path d="M8.5,15L3.5,15C3.224,15 3,14.776 3,14.5C3,14.224 3.224,14 3.5,14L8.5,14C8.776,14 9,14.224 9,14.5C9,14.776 8.776,15 8.5,15Z" style="fill-rule:nonzero;"/>
    </g>
    <g transform="matrix(0.9,0,0,0.9,1,1)">
        <path d="M17.943,6.544L17.13,5.953L16.819,4.997L15.814,4.997L15.001,4.406L14.188,4.997L13.183,4.997L12.872,5.953L12.059,6.544L12.37,7.5L12.059,8.456L12.872,9.047L13.004,9.453C13.002,9.469 13.002,9.484 13.002,9.5L13.002,14.5C13.002,14.702 13.124,14.885 13.311,14.962C13.498,15.039 13.713,14.997 13.856,14.854L15.002,13.708L16.148,14.854C16.244,14.95 16.371,15.001 16.502,15C16.566,15 16.631,14.988 16.693,14.962C16.88,14.885 17.002,14.702 17.002,14.5L17.002,9.5C17.002,9.484 17.001,9.468 17,9.453L17.132,9.047L17.945,8.456L17.634,7.5L17.945,6.544L17.943,6.544ZM13.233,6.926L13.721,6.571L13.908,5.997L14.512,5.997L15,5.642L15.488,5.997L16.092,5.997L16.279,6.571L16.767,6.926L16.58,7.5L16.767,8.074L16.279,8.429L16.092,9.003L15.488,9.003L15,9.358L14.512,9.003L13.908,9.003L13.721,8.429L13.233,8.074L13.42,7.5L13.233,6.926L13.233,6.926ZM15.354,12.646C15.159,12.451 14.842,12.451 14.647,12.646L14.001,13.292L14.001,10.002L14.188,10.002L15.001,10.593L15.814,10.002L16.001,10.002L16.001,13.292L15.355,12.646L15.354,12.646Z" style="fill-rule:nonzero;"/>
    </g>
</svg>
